icon-svg/rooms-kids-bedroom.svg

<svg xmlns="http://www.w3.org/2000/svg" fill="#44739e" viewBox="0 0 24 24"><path d="M21 25.5c-1.104 0-2-1.119-2-2.5s.896-2.5 2-2.5 2 1.119 2 2.5-.896 2.5-2 2.5M16 15c-1.657 0-3-1.119-3-2.5s1.343-2.5 3-2.5 3 1.119 3 2.5-1.343 2.5-3 2.5m-5 10.5c-1.104 0-2-1.119-2-2.5s.896-2.5 2-2.5 2 1.119 2 2.5-.896 2.5-2 2.5M16 11c.553 0 1 .447 1 1s-.447 1-1 1-1-.447-1-1 .447-1 1-1m9 5c-.431 0-.838.094-1.208.258-.642-.804-1.514-1.497-2.553-2.036.761-1.06 1.215-2.357 1.215-3.761 0-.025-.004-.05-.004-.075C23.907 10.073 25 8.78 25 7.23 25 5.446 23.554 4 21.77 4c-.918 0-1.743.387-2.331 1.002C18.44 4.371 17.262 4 15.993 4c-1.264 0-2.44.369-3.436.997C11.969 4.385 11.146 4 10.23 4 8.446 4 7 5.446 7 7.23c0 1.545 1.087 2.833 2.536 3.152 0 .026-.004.053-.004.079 0 1.407.455 2.705 1.219 3.767-1.034.538-1.903 1.229-2.543 2.03C7.838 16.094 7.431 16 7 16c-1.657 0-3 1.343-3 3s1.343 3 3 3c.028 0 .054-.008.081-.008C7.028 22.317 7 22.654 7 23c0 2.762 1.791 5 4 5 1.351 0 2.539-.842 3.264-2.123.562.079 1.141.123 1.736.123s1.174-.044 1.736-.123C18.461 27.158 19.649 28 21 28c2.209 0 4-2.238 4-5 0-.346-.028-.683-.081-1.008.027 0 .053.008.081.008 1.657 0 3-1.343 3-3s-1.343-3-3-3"/></svg>

<?xml version="1.0" encoding="UTF-8"?>
<svg width="32px" height="32px" viewBox="0 0 32 32" fill="#44739e" version="1.1" xmlns="http://www.w3.org/2000/svg" xmlns:xlink="http://www.w3.org/1999/xlink">
            <path d="M21,25.5 C19.896,25.5 19,24.381 19,23 C19,21.619 19.896,20.5 21,20.5 C22.104,20.5 23,21.619 23,23 C23,24.381 22.104,25.5 21,25.5 M16,15 C14.343,15 13,13.881 13,12.5 C13,11.119 14.343,10 16,10 C17.657,10 19,11.119 19,12.5 C19,13.881 17.657,15 16,15 M11,25.5 C9.896,25.5 9,24.381 9,23 C9,21.619 9.896,20.5 11,20.5 C12.104,20.5 13,21.619 13,23 C13,24.381 12.104,25.5 11,25.5 Z M16,11 C16.553,11 17,11.447 17,12 C17,12.553 16.553,13 16,13 C15.447,13 15,12.553 15,12 C15,11.447 15.447,11 16,11 Z M25,16 C24.569,16 24.162,16.094 23.792,16.258 C23.15,15.454 22.278,14.761 21.239,14.222 C22,13.162 22.454,11.865 22.454,10.461 C22.454,10.436 22.45,10.411 22.45,10.386 C23.907,10.073 25,8.78 25,7.23 C25,5.446 23.554,4 21.77,4 C20.852,4 20.027,4.387 19.439,5.002 C18.44,4.371 17.262,4 15.993,4 C14.729,4 13.553,4.369 12.557,4.997 C11.969,4.385 11.146,4 10.23,4 C8.446,4 7,5.446 7,7.23 C7,8.775 8.087,10.063 9.536,10.382 C9.536,10.408 9.532,10.435 9.532,10.461 C9.532,11.868 9.987,13.166 10.751,14.228 C9.717,14.766 8.848,15.457 8.208,16.258 C7.838,16.094 7.431,16 7,16 C5.343,16 4,17.343 4,19 C4,20.657 5.343,22 7,22 C7.028,22 7.054,21.992 7.081,21.992 C7.028,22.317 7,22.654 7,23 C7,25.762 8.791,28 11,28 C12.351,28 13.539,27.158 14.264,25.877 C14.826,25.956 15.405,26 16,26 C16.595,26 17.174,25.956 17.736,25.877 C18.461,27.158 19.649,28 21,28 C23.209,28 25,25.762 25,23 C25,22.654 24.972,22.317 24.919,21.992 C24.946,21.992 24.972,22 25,22 C26.657,22 28,20.657 28,19 C28,17.343 26.657,16 25,16"></path>
</svg>
